docs/.gitbook/assets/icon-alarm-ringing-16@dark.svg

<svg width="32" height="32" viewBox="0 0 16 16" fill="none" xmlns="http://www.w3.org/2000/svg">
<rect x="0" y="0" width="16" height="16" fill="#181c1f"/>
<path fill-rule="evenodd" clip-rule="evenodd" d="M1.96679 1.36034C2.31422 1.12871 2.74376 1 3.25 1C3.66421 1 4 1.33579 4 1.75C4 2.16421 3.66421 2.5 3.25 2.5C3.00624 2.5 2.87328 2.55879 2.79884 2.60841C2.7197 2.66117 2.65758 2.73688 2.60832 2.83541C2.55759 2.93687 2.52848 3.04742 2.51323 3.13892C2.5059 3.1829 2.50253 3.21791 2.50102 3.23898C2.50031 3.24896 2.50004 3.25544 2.49996 3.25785C2.49575 3.66845 2.16159 4 1.75 4C1.33579 4 1 3.66421 1 3.25H1.75C1 3.25 1 3.24963 1 3.24925L1 3.24846L1.00001 3.24677L1.00003 3.24296L1.00014 3.2336L1.00078 3.20817C1.00144 3.18834 1.00265 3.16272 1.00484 3.13211C1.00919 3.07116 1.01753 2.98898 1.03364 2.89233C1.06527 2.70258 1.12991 2.43813 1.26668 2.16459C1.40492 1.88812 1.62405 1.58883 1.96679 1.36034ZM3 6C3 3.23858 5.23858 1 8 1C10.7614 1 13 3.23858 13 6V7.78772L14.8887 10.8569C15.0311 11.0883 15.0373 11.3787 14.9047 11.6159C14.7722 11.853 14.5217 12 14.25 12H11C11 12.2281 10.9744 12.4511 10.9257 12.666C10.6225 14.0021 9.42867 15 8 15C6.57133 15 5.37753 14.0021 5.07435 12.666C5.02559 12.4511 5 12.2281 5 12H1.75C1.47829 12 1.22783 11.853 1.09528 11.6159C0.962743 11.3787 0.968853 11.0883 1.11126 10.8569L3 7.78772V6ZM6.5 12C6.5 12.1156 6.51294 12.2273 6.53716 12.334C6.68871 13.0019 7.28708 13.5 8 13.5C8.71292 13.5 9.31129 13.0019 9.46284 12.334C9.48706 12.2273 9.5 12.1156 9.5 12H6.5ZM8 2.5C6.067 2.5 4.5 4.067 4.5 6V8C4.5 8.13879 4.46149 8.27487 4.38874 8.39307L3.09217 10.5H5.75H10.25H12.9078L11.6113 8.39307C11.5385 8.27487 11.5 8.13879 11.5 8V6C11.5 4.067 9.933 2.5 8 2.5ZM12 1.75C12 1.33579 12.3358 1 12.75 1C13.2562 1 13.6858 1.12871 14.0332 1.36034C14.376 1.58883 14.5951 1.88812 14.7333 2.16459C14.8701 2.43813 14.9347 2.70258 14.9664 2.89233C14.9825 2.98898 14.9908 3.07116 14.9952 3.13211C14.9974 3.16272 14.9986 3.18834 14.9992 3.20817L14.9999 3.2336L15 3.24296L15 3.24677L15 3.24846L15 3.24925C15 3.24963 15 3.25 14.25 3.25H15C15 3.66421 14.6642 4 14.25 4C13.8384 4 13.5042 3.66844 13.5 3.25783C13.5 3.25541 13.4997 3.24894 13.499 3.23898C13.4975 3.21791 13.4941 3.1829 13.4868 3.13892C13.4715 3.04742 13.4424 2.93687 13.3917 2.83541C13.3424 2.73688 13.2803 2.66117 13.2012 2.60841C13.1267 2.55879 12.9938 2.5 12.75 2.5C12.3358 2.5 12 2.16421 12 1.75Z" fill="#fff"/>
</svg>

<svg xmlns="http://www.w3.org/2000/svg" width="32" height="32" fill="none" viewBox="0 0 16 16"><path fill="#181c1f" d="M0 0h16v16H0z"/><path fill="#fff" fill-rule="evenodd" d="M1.967 1.36C2.314 1.13 2.744 1 3.25 1a.75.75 0 0 1 0 1.5c-.244 0-.377.059-.451.108a.57.57 0 0 0-.19.227 1.1 1.1 0 0 0-.109.423A.75.75 0 0 1 1 3.25h.75H1v-.042l.005-.076a2.6 2.6 0 0 1 .262-.968c.138-.276.357-.575.7-.804M3 6a5 5 0 0 1 10 0v1.788l1.889 3.069A.75.75 0 0 1 14.25 12H11q-.001.343-.074.666A3 3 0 0 1 5 12H1.75a.75.75 0 0 1-.639-1.143L3 7.787zm3.5 6q0 .174.037.334A1.5 1.5 0 0 0 9.5 12zM8 2.5A3.5 3.5 0 0 0 4.5 6v2a.75.75 0 0 1-.111.393L3.092 10.5h9.816L11.61 8.393A.75.75 0 0 1 11.5 8V6A3.5 3.5 0 0 0 8 2.5m4-.75a.75.75 0 0 1 .75-.75c.506 0 .936.129 1.283.36.343.229.562.528.7.805A2.6 2.6 0 0 1 15 3.208v.026l.001.009v.006l-.75.001H15a.75.75 0 1 1-1.501-.011 1.1 1.1 0 0 0-.107-.404.57.57 0 0 0-.19-.227c-.075-.05-.208-.108-.452-.108a.75.75 0 0 1-.75-.75" clip-rule="evenodd"/></svg>
